germany/districts/8236.svg

<svg height="197" width="164" xmlns="http://www.w3.org/2000/svg"><g stroke="#000" stroke-width="2"><path d="M1 1v114a81 81 0 0 0 162 0V1z" fill="#fcdb00" style="fill:#fcdd09"/><path fill="#0081c9" d="M1 75q27-9 54 0t54 0 54 0v41q-27-9-54 0t-54 0-54 0zm109 51 16 27-16 27-16-27zm0-117 16 27-16 27-16-27zM54 126l16 27-16 27-16-27zM54 9l16 27-16 27-16-27z" style="fill:#0f47af"/></g></svg>

<?xml version="1.0" encoding="UTF-8" standalone="no"?>
<svg
   height="196.99997"
   width="164"
   version="1.1"
   id="svg4600"
   sodipodi:docname="Wappen_Enzkreis.svg"
   inkscape:version="1.2 (dc2aeda, 2022-05-15)"
   xmlns:inkscape="http://www.inkscape.org/namespaces/inkscape"
   xmlns:sodipodi="http://sodipodi.sourceforge.net/DTD/sodipodi-0.dtd"
   xmlns="http://www.w3.org/2000/svg"
   xmlns:svg="http://www.w3.org/2000/svg">
  <defs
     id="defs4604" />
  <sodipodi:namedview
     id="namedview4602"
     pagecolor="#ffffff"
     bordercolor="#000000"
     borderopacity="0.25"
     inkscape:showpageshadow="2"
     inkscape:pageopacity="0.0"
     inkscape:pagecheckerboard="0"
     inkscape:deskcolor="#d1d1d1"
     showgrid="false"
     inkscape:current-layer="svg4600" />
  <g
     stroke="#000000"
     stroke-width="2"
     id="g4598">
    <path
       d="m 1,1 v 114 a 81,81 0 0 0 162,0 V 1 Z"
       fill="#fcdb00"
       id="path4594"
       style="fill:#fcdd09" />
    <path
       fill="#0081c9"
       d="m 1,75 q 27,-9 54,0 27,9 54,0 27,-9 54,0 v 41 q -27,-9 -54,0 -27,9 -54,0 -27,-9 -54,0 z m 109,51 16,27 -16,27 -16,-27 z M 110,9 126,36 110,63 94,36 Z M 54,126 70,153 54,180 38,153 Z M 54,9 70,36 54,63 38,36 Z"
       id="path4596"
       style="fill:#0f47af" />
  </g>
</svg>
